X:1
T:Rest I Will Give You
T:George Coles Stebbins
T:Rest I Will Give You
T:Public Domain
T:Public Domain
C:George Coles Stebbins
Z:Public Domain
%%score ( 1 2 ) ( 3 4 )
L:1/8
M:6/4
K:Eb
V:1 treble 
V:2 treble 
V:3 bass 
V:4 bass 
V:1
 [B,E]2 | [EG]2 [EG]2 [EG]2 [DF]2 [EG]2 [FA]2 | [GB]4 [Ac]2 [GB]4 [EG]2 | %3
w: 1.~O|wear- y one bur- dened with|sin and care, For|
w: 2.~“I|suf- fered and died that you|might have life,” Hear|
w: 3.~“In|pa- s- tures green I will|make you feed, And|
 E4 [CE]2 ([DF]2 [B,E]2) [DF]2 | [EG]6- [EG]4 [B,E]2 | [EG]2 [EG]2 [EG]2 [DF]2 [EG]2 [FA]2 | %6
w: ref- uge quick- * ly|The * door|of God’s mer- cy is o-|
w: now the Sav- * ior|“My * com-|fort and peace I will give|
w: liv- ing wa- * ters|And * there|you’ll find rest from your care|
 [GB]4 [Ac]2 [GB]4 [EG]2 | [DF]2 [DB]2 [Fd]2 [Ec]4 [EF]2 | [DB]12 || %9
w: pen wide, And Je-|sus is pass- ing by.|“Rest|
w: to you,” O come|then with- out de- lay.||
w: and toil, Then come|to Me now and live.”||
"^Refrain" [GB]6- [GB]2 [^F=A]2 [GB]2 | [Ge]6 [EG]6 | [GB]4 z2 [^F=A]4 z2 | [=F_A]12 | %13
w: I * will give|you, rest,|sweet rest,”|O|
w: ||||
w: ||||
 [FA]6- [FA]2 [=EG]2 [FA]2 | [Bd]6 [Ac]6 | [DF]4 z2 [D^F]4 z2 | [EG]12 | %17
w: hear * the Sav-|ior gent-|ly say;|“Rest|
w: ||||
w: ||||
 [GB]6- [GB]2 [^F=A]2 [GB]2 | [Ge]6 [EG]6 | [GB]4 z2 [F=B]4 z2 | [Ec]12 | %21
w: I * will give|you rest,|sweet, rest,|Will|
w: ||||
w: ||||
 [ce]6- [ce]2 [Bd]2 [Ac]2 | [GB]4 z2 [Ec]6 | [EG]4 z2 [DF]4 z2 | E6- E4 |] %25
w: you * not come?|O come|to- day.”||
w: ||||
w: ||||
V:2
 x2 | x12 | x12 | E4 x8 | x12 | x12 | x12 | x12 | x12 || x12 | x12 | x12 | x12 | x12 | x12 | x12 | %16
w: |||fly!|||||||||||||
w: |||say;|||||||||||||
w: |||give;|||||||||||||
 x12 | x12 | x12 | x12 | x12 | x12 | x12 | x12 | E6- E4 |] %25
w: |||||||||
w: |||||||||
w: |||||||||
V:3
 [E,G,]2 | [E,B,]2 [E,B,]2 [E,B,]2 [B,,B,]2 [B,,B,]2 [B,,D]2 | [E,E]4 [E,E]2 [E,E]4 [E,B,]2 | %3
w: ~|~ ~ ~ ~ ~ ~|~ ~ ~ ~|
 [C,=A,]4 [F,A,]2 (B,2 G,2) [B,,B,]2 | [E,B,]6- [E,B,]4 [E,G,]2 | %5
w: ~ ~ ~ * ~|~ * ~|
 [E,B,]2 [E,B,]2 [E,B,]2 [B,,B,]2 [B,,B,]2 [B,,D]2 | [E,E]4 [E,E]2 [E,E]4 [E,B,]2 | %7
w: ~ ~ ~ ~ ~ ~|~ ~ ~ ~|
 [F,B,]2 [F,B,]2 [F,B,]2 [F,=A,]4 [F,A,]2 | [B,,B,]12 || z6 [E,B,]2 [E,C]2 [E,B,]2 | %10
w: ~ ~ ~ ~ ~|Rest|I will ~|
 [E,B,]6 [E,B,]6 | [E,E]4 z2 [E,C]4 z2 | [B,,D]12 | z6 [B,,B,]2 [B,,B,]2 [B,,B,]2 | %14
w: ~ ~|~ ~|O|hear the ~|
 [B,,B,]6 [B,,B,]6 | [B,,B,]4 z2 [B,,A,]4 z2 | [E,B,]12 | z6 [E,D]2 [E,E]2 [E,B,]2 | %18
w: ~ ~|~ ~|“Rest|I will ~|
 [E,B,]6 [E,B,]6 | [E,E]4 z2 [G,D]4 z2 | [A,C]12 | z6 [A,E]2 [A,E]2 [A,E]2 | [E,E]4 z2 [E,G,]6 | %23
w: ~ ~|~ ~|Will|you not come?||
 [B,,B,]4 z2 [B,,A,]4 z2 | [E,G,]6- [E,G,]4 |] %25
w: ||
V:4
 x2 | x12 | x12 | x6 B,,4 x2 | x12 | x12 | x12 | x12 | x12 || x12 | x12 | x12 | x12 | x12 | x12 | %15
w: |||~||||||||||||
 x12 | x12 | x12 | x12 | x12 | x12 | x12 | x12 | x12 | x10 |] %25
w: ||||||||||

